public/logo-horizontal-white-digital.svg

<svg width="205" height="100" viewBox="0 0 205 100" fill="none" xmlns="http://www.w3.org/2000/svg">
<path d="M31.4564 16.1114C38.3579 16.1114 43.5708 17.7854 47.0949 21.1334C50.6485 24.4813 52.4253 29.4739 52.4253 36.1111V68.8419H39.2096L39.1215 35.0098C39.1215 32.1317 38.4901 29.9879 37.2273 28.5782C35.9938 27.1685 34.0849 26.4637 31.5005 26.4637H24.6283C24.0997 28.0789 23.7032 29.8851 23.4389 31.8821C23.1746 33.8791 23.0425 35.7734 23.0425 37.5648V52.939C23.0425 58.2547 21.6475 62.3662 18.8575 65.2736C16.0969 68.1517 12.2203 69.5908 7.22773 69.5908C6.02364 69.5908 4.92233 69.532 3.92382 69.4146C2.9253 69.3264 1.85336 69.1943 0.708008 69.0181V58.7539C1.1779 58.7833 1.66247 58.8127 2.16173 58.842C2.66099 58.842 3.14556 58.842 3.61545 58.842C5.75932 58.842 7.37457 58.284 8.46119 57.168C9.54781 56.0521 10.0911 54.3047 10.0911 51.9258V38.7542C10.0911 36.904 10.3407 34.8042 10.84 32.4548C11.3393 30.1053 12.1322 28.1083 13.2188 26.4637H4.80486V16.1114H31.4564Z" fill="white"/>
<path d="M57.7591 26.4637V1.17773H71.0188V16.1114H95.9523V26.4637H57.7591ZM100.578 24.5694L82.9129 68.8419H68.8602L90.5339 16.1114H100.578V24.5694Z" fill="white"/>
<path d="M136.748 68.8419V34.8776C136.748 32.0289 136.014 29.9144 134.546 28.5341C133.106 27.1538 130.889 26.4637 127.894 26.4637H106.396V16.1114H128.819C135.603 16.1114 140.83 17.8001 144.501 21.1774C148.172 24.5254 150.008 29.2977 150.008 35.4944V68.8419H136.748ZM106.264 68.8419V50.7805C106.264 47.1976 106.646 44.5838 107.409 42.9392C108.173 41.2652 108.819 40.1052 109.348 39.4591H119.92C119.656 40.6044 119.45 41.9847 119.303 43.6C119.157 45.2152 119.083 47.1388 119.083 49.3708V68.8419H106.264Z" fill="white"/>
<path d="M178.533 70.1717V59.823C182.359 59.6724 185.327 58.4974 187.436 56.2981C189.575 54.0687 190.644 50.83 190.644 46.582V26.698H159.011V16.0781H204.292V46.3561C204.292 51.3271 203.253 55.56 201.174 59.0547C199.095 62.5194 196.127 65.2007 192.271 67.0987C188.445 68.9666 183.866 69.991 178.533 70.1717Z" fill="white"/>
<path d="M159.553 36.2837L159.64 82.9199H172.745L172.658 34.8828C172.658 32.5931 172.733 30.6198 172.884 28.9628C173.065 27.3058 173.291 25.8898 173.562 24.7148H162.671C162.159 25.3776 161.511 26.5677 160.728 28.2849C159.944 30.0022 159.553 32.6685 159.553 36.2837Z" fill="white"/>
<path d="M0.762604 85.657V78.4102H4.22163V82.9477H11.9814V85.657H0.762604ZM13.2046 85.1572L7.79904 98.612H4.12957L10.5873 82.9477H13.2046V85.1572Z" fill="white"/>
<path d="M23.003 98.9145C21.679 98.9145 20.5216 98.6427 19.5308 98.099C18.54 97.5466 17.7684 96.7794 17.216 95.7974C16.6724 94.8066 16.4006 93.658 16.4006 92.3515V82.9477H19.8465V92.7066C19.8465 93.7588 20.1358 94.6137 20.7145 95.2713C21.2932 95.9202 22.0517 96.2446 22.9899 96.2446C23.928 96.2446 24.6821 95.9202 25.252 95.2713C25.8307 94.6137 26.1201 93.7588 26.1201 92.7066V87.9061C26.1201 87.1608 25.9579 86.5952 25.6334 86.2094C25.309 85.8149 24.8268 85.6176 24.1867 85.6176C23.95 85.6176 23.6957 85.6483 23.4239 85.7096C23.1521 85.7622 22.8715 85.8368 22.5821 85.9332L22.1876 83.6974C22.6435 83.4168 23.1564 83.1976 23.7264 83.0397C24.2963 82.8731 24.8355 82.7898 25.3441 82.7898C26.6593 82.7898 27.694 83.2195 28.448 84.0788C29.2021 84.938 29.5791 86.1217 29.5791 87.6299V92.3515C29.5791 93.658 29.3029 94.8066 28.7505 95.7974C28.2069 96.7794 27.4397 97.5466 26.4489 98.099C25.4669 98.6427 24.3182 98.9145 23.003 98.9145Z" fill="white"/>
<path d="M34.4586 91.8123V85.657H31.8413V82.9477H37.9176V91.8123H34.4586Z" fill="white"/>
<path d="M41.0084 98.7566C40.8769 98.7566 40.7366 98.7523 40.5875 98.7435C40.4385 98.7347 40.2938 98.7216 40.1535 98.704V95.5607C40.3376 95.587 40.5174 95.6089 40.6927 95.6264C40.8769 95.644 41.0479 95.6527 41.2057 95.6527C41.9597 95.6352 42.613 95.4949 43.1654 95.2319C43.7265 94.9688 44.1912 94.6005 44.5595 94.1271C44.9278 93.6536 45.204 93.1056 45.3881 92.483V85.657H41.9291V82.9477H48.7945V90.9442C48.7945 91.786 48.8822 92.6058 49.0576 93.4037L50.1229 98.612H46.9138L45.9931 94.4822H45.901C45.7783 95.2625 45.4889 95.9771 45.033 96.626C44.577 97.2748 44.0027 97.7922 43.31 98.1779C42.6174 98.5637 41.8501 98.7566 41.0084 98.7566Z" fill="white"/>
<path d="M54.6078 91.8123V85.657H51.9905V82.9477H58.0668V91.8123H54.6078Z" fill="white"/>
<path d="M60.8946 82.9477H74.0073V85.657H71.3111V98.612H67.8389V85.657H60.8946V82.9477Z" fill="white"/>
<path d="M157.429 7.39662C155.664 7.19856 153.69 6.48766 151.822 5.27378C150.02 4.10264 148.606 2.65174 147.701 1.17445C147.52 2.96644 146.805 4.98083 145.567 6.8859C144.312 8.81781 142.736 10.3042 141.149 11.1939C142.877 11.4143 144.792 12.119 146.608 13.2989C148.491 14.5223 149.95 16.0508 150.847 17.596C150.998 15.7616 151.719 13.6791 152.996 11.713C154.256 9.775 155.838 8.28535 157.429 7.39662Z" fill="white"/>
</svg>

<svg xmlns="http://www.w3.org/2000/svg" width="205" height="100" fill="none" viewBox="0 0 205 100"><path fill="#fff" d="M31.456 16.111q10.353 0 15.639 5.022 5.33 5.021 5.33 14.978v32.73H39.21l-.09-33.831q.001-4.317-1.894-6.432-1.85-2.115-5.726-2.114h-6.873q-.792 2.422-1.19 5.418a43 43 0 0 0-.395 5.683v15.374q0 7.974-4.185 12.335-4.142 4.317-11.63 4.317-1.806 0-3.304-.176-1.498-.133-3.216-.397V58.754q.704.045 1.454.088h1.453q3.217 0 4.846-1.674t1.63-5.242V38.754q0-2.775.749-6.3.75-3.524 2.379-5.99H4.805V16.11zM57.76 26.464V1.178h13.259V16.11h24.933v10.353zm42.818-1.895L82.913 68.842H68.86l21.674-52.73h10.044zm36.17 44.273V34.878q0-4.275-2.202-6.344-2.16-2.07-6.652-2.07h-21.498V16.11h22.423q10.176.001 15.682 5.066 5.507 5.022 5.507 14.317v33.348zm-30.484 0V50.78q0-5.374 1.145-7.842 1.146-2.511 1.939-3.48h10.572q-.396 1.718-.617 4.141t-.22 5.77v19.472zm72.269 1.33V59.823q5.74-.226 8.903-3.525 3.208-3.345 3.208-9.716V26.698h-31.633v-10.62h45.281v30.278q0 7.457-3.118 12.699-3.119 5.197-8.903 8.044-5.739 2.802-13.738 3.073"/><path fill="#fff" d="m159.553 36.284.087 46.636h13.105l-.087-48.037q0-3.435.226-5.92.272-2.486.678-4.248h-10.891q-.768.994-1.943 3.57t-1.175 7.999M.763 85.657V78.41h3.459v4.538h7.76v2.709zm12.442-.5L7.799 98.612h-3.67l6.458-15.664h2.618zm9.798 13.758q-1.986 0-3.472-.816a5.9 5.9 0 0 1-2.315-2.302q-.816-1.486-.815-3.445v-9.404h3.445v9.759q0 1.578.869 2.564.867.975 2.275.974 1.407 0 2.262-.974.868-.986.868-2.564v-4.8q0-1.119-.487-1.698-.486-.591-1.446-.591-.355 0-.763.092a7 7 0 0 0-.842.223l-.394-2.236q.684-.42 1.538-.657.856-.25 1.618-.25 1.973 0 3.104 1.289t1.131 3.55v4.722q0 1.96-.829 3.446a5.8 5.8 0 0 1-2.3 2.303q-1.472.816-3.446.816m11.455-7.104v-6.155H31.84v-2.71h6.077v8.865zm6.549 6.945a7 7 0 0 1-.855-.053v-3.143q.277.04.54.065.276.027.513.027 1.13-.027 1.96-.421a3.76 3.76 0 0 0 1.394-1.105 4.9 4.9 0 0 0 .828-1.644v-6.826H41.93v-2.71h6.865v7.997q0 1.263.264 2.46l1.065 5.208h-3.21l-.92-4.13h-.092a5.05 5.05 0 0 1-.868 2.144 5.1 5.1 0 0 1-1.723 1.552 4.65 4.65 0 0 1-2.302.579m13.599-6.945v-6.155H51.99v-2.71h6.076v8.865zm6.287-8.864h13.112v2.709h-2.696v12.955H67.84V85.657h-6.944zm96.534-75.551c-1.765-.198-3.739-.91-5.607-2.123-1.802-1.171-3.216-2.622-4.121-4.1-.181 1.792-.896 3.807-2.134 5.712-1.255 1.932-2.831 3.418-4.418 4.308 1.728.22 3.643.925 5.459 2.105 1.883 1.223 3.342 2.752 4.239 4.297.151-1.834.872-3.917 2.149-5.883 1.26-1.938 2.842-3.428 4.433-4.316"/></svg>
